X:1
T:O SALUTARIS
T:Lefébure-Wély Edited by James Dhonau 
T:O SALUTARIS
T:Solo for Alto or Bass with Organ Accompaniment
T:Copyright © 
T:Copyright © 
T:Copyright © 
T:Copyright © 
C:Lefébure-Wély
C:Edited by James Dhonau
C:
Z:Copyright ©
%%score 1 { ( 2 3 7 ) | ( 4 5 6 ) }
L:1/8
Q:1/4=80
M:4/4
K:G
V:1 treble nm="Alto Solo"
V:2 treble nm="Organ" snm="Org."
V:3 treble 
V:7 treble 
V:4 bass 
V:5 bass 
V:6 bass 
V:1
"^Andante" z8 | z8 | z8 | z8 | z8 | z8 | z8 | z8 |!f! B4 B3 c | d4 G4 | (A4{BA^GA} c3) B | A6 z2 | %12
w: ||||||||O Sa- lu-|ta- ris|ho- * ti-|a|
 G4 F3 G | E4 c4 | B6 A2 | (A4 D2) z2 |!pp! B4 B3 c | d4 G4 | (A4{BA^GA} c3) B | A6 z2 | G4 F3 G | %21
w: Quae coe- li|pan- dis|os- ti-|um _|O Sa- lu-|ta- ris|ho- * ti-|a|Quae coe- li|
"^Rall." (E2 e2) (c2 A2) | (G2 (5:4:5D/E/D/^C/D/ B3) A | G4 z4 | z8 | z8 | z8 | z8 | B4 (^C3 E) | %29
w: pan- * dis _|o- * * * * * * sti-|um|||||Bel- la _|
 G4 A4 | (G7/2 F/) d7/2 B/ | A4 z4 |!f! ^A4 A2 z2 | B4 B2 z2 | ^c4 c7/2 c/ | d4 z4 |!f! D4 d4 | %37
w: pre- munt|ho- * sti- li-|a|Be- la|pre- munt|ho- sti- li-|a|Bel- la|
 (d3 c/B/) B2 z2 |!p! F4 B4 | (B3 A/G/) G2 z2 |!<(! (E2 F2 G2!<)! A2) | B7/2 A/ d z D2 | %42
w: Pre- * * munt|Bel- la|pre- * * munt|ho- * * *|sti- li- a ho-|
 F4- !>!F3 E | D4 z4 | z8 | z8 | c4 B3 c | B4 A2 z2 | d4 c3 d | c4 (B2 A2) | (G4 E3) A | %51
w: sti- * li-|a|||O sa- lu-|ta- ris|O sa- lu-|ta- ris _|ho- * sti-|
"^Rall." (A4 ^A4) |!f! B4 B3 c | d4 G4 | (A4{BA^GA} c3) B | A6 z2 | G4 F3 G | E4 c4 | B6 A2 | %59
w: a _|O Sa- lu-|ta- ris|ho- * ti-|a|Quae coe- li|pan- dis|os- ti-|
 (A4 D2) z2 |!pp! B4 B3 c | d4 G4 | (A4{BA^GA} c3) B | A6 z2 | G4 F3 G | (E2 e2) (c2 A2) | %66
w: um _|O Sa- lu-|ta- ris|ho- * ti-|a|Quae coe- li|pan- * dis _|
 (G2 (5:4:5D/E/D/^C/D/ B3) A |"^Animato." G4 z2 z3/2!f! d/ | (d4 G2) z3/2 G/ | (G4 E2) z2 | %70
w: o- * * * * * * sti-|um Da|ro- bur da|ro- bur|
 D7/2 E/ D7/2 A/ | B4 z2 z3/2 d/ | (d4 G2) z3/2 G/ | (G4 E2) z2 | D7/2 E/ D2 !fermata!A2 | %75
w: fer- au- xi- li-|um Da|ro- bur da|ro- bur|fer- au- xi- li|
 G4"^Lento." !fermata!z4 |!<(! E6!<)! G2 | !fermata!G4 z4 |] %78
w: um|A- *|men.|
V:2
"^Andante" B4 B3 c | d4 G4 | A4 c3 B | A8 | G4 F3 G | E2 e2 c2 A2 | G2 z2 [CF]4 | [B,G]4 z4 | %8
 [B,D]8- | [B,D-]8 | [CD]4 A,3 B, | [CD]8 | B,8 | [CE]8 | [B,D]6 [^CG]2 | [DF] z =C2 B,2 ^A,2 | %16
 [B,D]8- | B,8 | [A,CF]4 [^G,B,=E]4 | [A,CF]4- [A,B,F]4 | [G,B,E]8 | [A,CE]2 z2 z4 | [B,D]2 z2 z4 | %23
"^Hautboy" z8 | (A4 B3 ^c | d2 F2 A2 G2 | ^D4- DEGF | F4 E2) z2 | %28
 z2"^Flutes" .[G,C]2 .[G,C]2 .[G,C]2 | z2 .[G,C]2 .[G,C]2 .[G,C]2 | z2 .[F,A,D]2 z2 .[^G,B,^E]2 | %31
 z2 .[A,DF]2 .[A,DF]2 .[A,DF]2 | z2 F2 G2 F2 | z2 F2 G2 F2 | z2 F2 G2 F2 | z2 F2 G2 F2 | %36
 z2 (D2 c2 A2) | z2 (D2 B2 G2) | z2 (B,2 A2 F2) | z2 (B,2 G2 E2) | [A,^CE]8 | [A,D]4 z4 | z8 | %43
 z2"^Hautboy" D2 D2 D2 | (A4 G3 A | G4 F2) z2 | D8- | D8- | D8- | D8 | D2 ^CB, C4 | D4 z4 | %52
 [B,D]8- | [B,D]8- | [CD]4 A,3 B, | [CD]8 | B,8 | [CE]8 | [B,D]6 [^CG]2 | [DF] z =C2 B,2 ^A,2 | %60
 [B,D]8- | B,8 | [A,CF]4 [^G,B,=E]4 | [A,CF]4- [A,B,F]4 | [G,B,E]8 | [A,CE]2 z2 z4 | [B,D]2 z2 z4 | %67
 z8 | [G,D]8 | [G,C]8 | [A,CD]8 | [B,D]8 | [G,B,D]8 | [G,C]8 | [A,CD]8 | [B,D]4 !fermata!z4 | %76
 (([CE]8 | !fermata![B,DF]4)) z4 |] %78
V:3
 D8- | D8- | D8- | D8- | D4 ^D4 | x8 | x8 | x8 | x8 | x8 | x8 | x8 | D4 ^D4 | x8 | x8 | x8 | x8 | %17
 D4 E4 | x8 | x8 | x8 | x8 | x8 | x8 | x8 | x8 | x8 | x8 | x8 | x8 | x8 | x8 | x8 | x8 | x8 | x8 | %36
 x8 | x8 | x8 | x8 | x8 | x8 | x8 | x8 | x8 | x8 | x8 | x8 | x8 | x8 | x8 | x8 | x8 | x8 | x8 | %55
 x8 | D4 ^D4 | x8 | x8 | x8 | x8 | D4 E4 | x8 | x8 | x8 | x8 | x8 | x8 | x8 | x8 | x8 | x8 | x8 | %73
 x8 | x8 | x8 | x8 | x8 |] %78
V:4
"^Flutes" G,4 G,3 A, | B,4 E,4 | F,4 A,3 G, | F,4 C4 | B,4 [B,,A,]4 | G,2 ^G,2 A,2 C2 | %6
 B,2 z2 A,4 | [G,,G,]4 z4 | .G,,2 .D,2 .G,2 .D,2 | .G,,2 .D,2 .G,2 .D,2 | .D,,2 .D,2 .F,2 .D,2 | %11
 .D,,2 .D,2 .F,2 .D,2 | .G,,2 .D,2 .G,2 .D,2 | .C,2 .E,2 .A,2 .A,,2 | .D,,2 .D,2 .G,2 .E,2 | %15
 .D, z .A,2 .G,2 .F,2 |!pp! .G,,2 .D,2 .G,2 .D,2 | .G,,2 .D,2 .G,2 .D,2 | .D,,2 .D,2 z2 .D,2 | %19
 .D,,2 .D,2 .^D,,2 .^D,2 | .E,,2 .B,,2 .E,2 .E,,2 | [C,,C,]2 z2 z4 | [D,,D,]2 z2 [D,F,]4- | %23
 [G,,B,,D,G,]4"^Flutes" z4 | D,2 [F,A,]2 [F,A,]2 [F,A,]2 | D,2 [F,A,]2 [F,A,]2 [F,A,]2 | %26
 G,,2 [B,,E,]2 [B,,E,]2 [B,,E,]2 | G,,2 [B,,E,]2 [B,,E,]2 [B,,E,]2 | A,,2 z2 z4 | A,,2 z2 z4 | %30
 [D,,D,]2 z2 [D,,D,]2 z2 | [D,,D,]2 z2 z4 | [^C,,^C,]4 z4 | [B,,,B,,]4 z4 | [^A,,,^A,,]6 z2 | %35
 [B,,,B,,]2 z2 z4 | [F,A,]8 | [G,B,]8 | [^D,F,]8 | [E,G,]8 | [A,,G,]8 | [F,,F,]4 z2 [B,,E,^G,]2 | %42
 A,,8 | [D,,D,] z z2 z4 | D,8- | D,4- D,2 z2 | A,4 G,3 A, | G,4 F,4 | B,4 A,3 B, | A,4 G,2 F,2 | %50
 E,6 G,2 | D,4 z4 | .G,,2 .D,2 .G,2 .D,2 | .G,,2 .D,2 .G,2 .D,2 | .D,,2 .D,2 .F,2 .D,2 | %55
 .D,,2 .D,2 .F,2 .D,2 | .G,,2 .D,2 .G,2 .G,,2 | .C,2 .E,2 .A,2 .A,,2 | .D,,2 .D,2 .G,2 .E,2 | %59
 .D, z .A,2 .G,2 .F,2 |!pp! .G,,2 .D,2 .G,2 .D,2 | .G,,2 .D,2 .G,2 .D,2 | .D,,2 .D,2 z2 .D,2 | %63
 .D,,2 .D,2 .^D,,2 .^D,2 | .E,,2 .B,,2 .E,2 .E,,2 | [C,,C,]2 z2 z4 | [D,,D,]2 z2 [D,F,]4- | %67
"^Animato" [D,G,]2 G,2 G,2 G,2 | =F,8 | E,8 | ^F,8 | G,4 F,4 | =F,8 | %73
"^Source: Paris: Parvy, n.d. Plates A.G.1426, 1426bis." E,8 | ^F,8 | G,4 !fermata!z4 | %76
"^Bar 40, first beat:  d corrected to: j" [C,G,-]8 | !fermata![G,,G,]4 z4 |] %78
V:5
 x8 | x8 | x8 | x8 | x8 | C,8 | D,2 z2 D,4 | x8 | x8 | x8 | x8 | x8 | x8 | x8 | x8 | x8 | x8 | x8 | %18
 x8 | x8 | x8 | x8 | x8 | x8 | x8 | x8 | x8 | x8 | x8 | x8 | x8 | x8 | x8 | x8 | x8 | x8 | x8 | %37
 x8 | x8 | x8 | x8 | x4 z2 D2 | [F,A,D]4 [=G,^C]4 | [F,D] z z2 z4 | C4 B,3 C | B,4 A,2 z2 | x8 | %47
 x8 | x8 | x8 | z4 A,,4 | F,4 z4 | x8 | x8 | x8 | x8 | x8 | x8 | x8 | x8 | x8 | x8 | x8 | x8 | x8 | %65
 x8 | x8 | [G,,B,,]2 z2 z4 | G,,2 G,,2 G,,2 G,,2 | G,,2 G,,2 G,,2 G,,2 | G,,2 G,,2 G,,2 G,,2 | %71
 G,,2 G,,2 G,,2 G,,2 | G,,2 G,,2 G,,2 G,,2 | G,,2 G,,2 G,,2 G,,2 | G,,2 G,,2 G,,2 G,,2 | %75
 G,,2 x2 x2 x2 | x2 x2 x2 x2 | x8 |] %78
V:6
 x8 | x8 | x8 | x8 | x8 | x8 | x8 | x8 | x8 | x8 | x8 | x8 | x8 | x8 | x8 | x8 | x8 | x8 | x8 | %19
 x8 | x8 | x8 | x4 [D,,C,]4- | x8 | x8 | x8 | x8 | x8 | x8 | x8 | x8 | x8 | x8 | x8 | x8 | x8 | %36
 x8 | x8 | x8 | x8 | x8 | x8 | x8 | x8 | x8 | x8 | x8 | x8 | x8 | x8 | x8 | x8 | x8 | x8 | x8 | %55
 x8 | x8 | x8 | x8 | x8 | x8 | x8 | x8 | x8 | x8 | x8 | x4 [D,,C,-]4 | x8 | x8 | x8 | x8 | x8 | %72
 x8 | x8 | x8 | x8 | x8 | x8 |] %78
V:7
 x8 | x8 | x8 | x8 | x8 | x8 | x8 | x8 | x8 | x8 | x8 | x8 | x8 | x8 | x8 | x8 | x8 | x8 | x8 | %19
 x8 | x8 | x8 | x8 | x8 | x8 | x8 | x8 | x8 | x8 | x8 | x8 | x8 | x2 E6 | x2 D6 | x2 E6 | x2 D6 | %36
 x8 | x8 | x8 | x8 | x8 | x8 | x8 | x8 | x8 | x8 | x8 | x8 | x8 | x8 | x8 | x8 | x8 | x8 | x8 | %55
 x8 | x8 | x8 | x8 | x8 | x8 | x8 | x8 | x8 | x8 | x8 | x8 | x8 | x8 | x8 | x8 | x8 | x8 | x8 | %74
 x8 | x8 | x8 | x8 |] %78

